site/assets/icons/logo.svg

<?xml version="1.0" encoding="UTF-8"?>
<svg width="512px" height="512px" viewBox="0 0 500 500" version="1.1" xmlns="http://www.w3.org/2000/svg" xmlns:xlink="http://www.w3.org/1999/xlink">
    <title>icon / color / lws-icon-color</title>
    <g id="icon-/-color-/-lws-icon-color" stroke="none" stroke-width="1" fill="none" fill-rule="evenodd">
        <g id="lws-icon-color" transform="translate(2, 8)" fill-rule="nonzero">
            <path d="M446.14259,121.164175 C443.483081,112.653747 437.10026,105.739025 429.121734,101.483811 L266.891709,23.8261595 C262.636496,21.6985526 257.84938,21.1666509 253.594166,21.1666509 C249.338953,21.1666509 244.551837,21.1666509 240.296623,22.2304543 L78.0665981,100.420007 C70.0880722,104.143319 64.2371533,111.058042 62.1095464,120.100371 L21.6850155,295.096038 C20.0893104,304.138367 22.2169173,313.180696 27.5359345,320.62732 L139.767198,459.45367 C146.150018,465.83649 155.192348,470.091704 164.234677,470.623606 L343.485557,470.623606 C353.059788,471.687409 362.102118,467.432195 367.953036,459.45367 L480.1843,320.62732 C485.503317,313.180696 487.630924,304.138367 486.56712,295.096038 L446.14259,121.164175 Z" id="inner-bg" fill="#326CE5"></path>
            <path d="M253.594166,0 C261.739794,0 269.203824,1.31718179 276.030822,4.73417851 L438.260847,82.3918299 L439.082511,82.8073542 C452.062668,89.7301045 462.037887,101.06558 466.345734,114.850692 L466.581093,115.603842 L507.451079,291.452331 L507.588793,292.6229 C509.201262,306.328887 506.053015,319.999361 498.46984,331.391102 L497.041516,333.443701 L384.576981,472.556064 L384.038643,473.268411 C374.363697,485.625837 359.808921,492.575699 344.35662,491.908293 L342.524137,491.785966 L163.612666,491.790257 L162.991728,491.753731 C148.818201,490.919994 134.886227,484.506863 124.800115,474.420752 L124.009579,473.630216 L10.6787182,333.443701 L10.3119222,332.930186 C1.67674746,320.840942 -1.73949255,306.037235 0.840445796,291.417584 L1.06147432,290.331937 L41.5055651,115.252376 C44.9610355,100.566626 54.4356983,88.6381678 67.4196778,82.0610754 L233.059685,2.22160463 L235.162956,1.69578672 C238.549934,0.849042301 241.977597,0.388609941 245.702446,0.169501171 C247.589012,0.0585267358 249.095276,0.0176414544 251.397956,0.00495043721 L253.594166,0 Z M253.594166,21.1666509 C249.338953,21.1666509 244.551837,21.1666509 240.296623,22.2304543 L78.0665981,100.420007 C70.0880722,104.143319 64.2371533,111.058042 62.1095464,120.100371 L21.6850155,295.096038 C20.0893104,304.138367 22.2169173,313.180696 27.5359345,320.62732 L139.767198,459.45367 C146.150018,465.83649 155.192348,470.091704 164.234677,470.623606 L343.485557,470.623606 C353.059788,471.687409 362.102118,467.432195 367.953036,459.45367 L480.1843,320.62732 C485.503317,313.180696 487.630924,304.138367 486.56712,295.096038 L446.14259,121.164175 C443.483081,112.653747 437.10026,105.739025 429.121734,101.483811 L266.891709,23.8261595 C262.636496,21.6985526 257.84938,21.1666509 253.594166,21.1666509 Z" id="edge" fill="#FFFFFF"></path>
            <path d="M322.322353,397.180504 C333.091945,391.927823 346.080563,396.400163 351.333244,407.169755 C356.585925,417.939347 352.113585,430.927965 341.343993,436.180646 C330.574401,441.433327 317.585783,436.960987 312.333102,426.191395 C307.080421,415.421803 311.552761,402.433184 322.322353,397.180504 Z M156.66658,407.169755 C161.919261,396.400163 174.907879,391.927823 185.677471,397.180504 C196.447063,402.433184 200.919403,415.421803 195.666722,426.191395 C190.414041,436.960987 177.425423,441.433327 166.655831,436.180646 C155.886239,430.927965 151.413899,417.939347 156.66658,407.169755 Z M261.939783,110.232439 L261.936806,139.432246 C293.300512,141.505772 321.329915,155.77841 341.323756,177.5489 L363.00844,159.986356 C364.043852,161.909634 365.272632,163.764323 366.69756,165.523963 C368.71084,168.010156 370.991127,170.152787 373.463798,171.944014 L351.257621,189.928447 C364.667705,209.136002 372.533157,232.501451 372.533157,257.703974 C372.533157,264.059141 372.033019,270.297494 371.069956,276.381822 L395.851545,282.099016 C395.240758,283.671964 394.734918,285.307794 394.344209,287.000141 C393.499912,290.657193 393.254517,294.312714 393.543814,297.863947 L367.537582,291.861451 C358.710142,321.244454 338.7882,345.826313 312.638419,360.740366 L323.15728,382.296965 C320.832146,382.88618 318.532222,383.721537 316.291101,384.814605 C313.626127,386.1144 311.197117,387.704069 309.023523,389.527126 L298.356041,367.659019 C284.654893,373.1914 269.683097,376.237219 253.999912,376.237219 C238.316727,376.237219 223.344931,373.1914 209.643783,367.659019 L198.976301,389.527126 C196.802707,387.704069 194.373697,386.1144 191.708723,384.814605 C189.466355,383.720929 187.165118,382.88525 184.838661,382.295982 L195.356116,360.73735 C169.208938,345.822998 149.289087,321.242473 140.462242,291.861451 L114.45601,297.863947 C114.745307,294.312714 114.499912,290.657193 113.655615,287.000141 C113.264906,285.307794 112.759066,283.671964 112.148279,282.099016 L136.929867,276.381822 C135.966805,270.297494 135.466667,264.059141 135.466667,257.703974 C135.466667,232.499138 143.333563,209.131713 156.745896,189.923158 L134.537014,171.943298 C137.009305,170.152216 139.289252,168.009824 141.302264,165.523963 C142.727192,163.764323 143.955972,161.909634 144.991384,159.986356 L166.676068,177.5489 C186.669909,155.77841 214.699312,141.505772 246.063017,139.432246 L246.060041,110.232439 C248.612643,110.816438 251.270253,111.124917 253.999912,111.124917 C256.183639,111.124917 258.321255,110.92749 260.395885,110.549512 L261.939783,110.232439 Z M253.999912,156.10405 L251.21919,156.141368 L248.630479,156.243502 C221.818066,157.639593 197.756941,169.430619 180.400672,187.663016 L179.869307,188.22545 L177.50659,190.833941 C176.887503,191.54148 176.27528,192.261064 175.673015,192.989185 L173.463706,195.756524 C172.291013,197.278824 171.160064,198.835965 170.0731,200.425563 C158.921581,216.734345 152.399988,236.45756 152.399988,257.703974 C152.399988,262.53082 152.736584,267.27905 153.387585,271.926472 L153.478586,272.561507 L154.06358,276.113075 L154.597459,278.820893 L155.36191,282.140873 L155.255535,281.71796 L155.518678,282.782584 C155.950267,284.482569 156.424716,286.165454 156.940808,287.830023 C164.317423,311.623324 180.203648,331.675258 201.042015,344.427464 L202.799386,345.478702 C204.581241,346.520334 206.397662,347.50926 208.246513,348.443342 L211.043844,349.803065 L211.649326,350.08053 L213.850658,351.059488 L214.697324,351.419321 L216.747633,352.25732 C228.282326,356.805445 240.849346,359.303898 253.999912,359.303898 C267.061262,359.303898 279.546958,356.83923 291.017289,352.349603 L294.155524,351.060016 L296.675771,349.93346 L298.114469,349.252831 L299.540696,348.550447 L301.914509,347.307699 L304.736341,345.748358 C326.007442,333.464208 342.41154,313.693038 350.346995,290.036485 L350.993518,288.040463 C351.903146,285.129127 352.68531,282.1615 353.333477,279.144115 L353.936737,276.110385 L354.510921,272.631745 C355.228285,267.759759 355.599836,262.775257 355.599836,257.703974 C355.599836,237.252586 349.557179,218.212537 339.159859,202.271821 L338.057978,200.617985 C336.916825,198.940918 335.726796,197.299781 334.489939,195.696623 L332.383903,193.071606 L331.198512,191.648686 C330.252618,190.544262 329.283436,189.460375 328.291727,188.397783 C311.33829,170.23166 287.79762,158.288959 261.474746,156.374837 L259.073178,156.228509 L256.558419,156.135636 L253.999912,156.10405 Z M407.749907,290.09509 C410.445331,278.419926 422.094995,271.140408 433.770159,273.835832 C445.445323,276.531256 452.724841,288.18092 450.029417,299.856084 C447.333993,311.531248 435.684329,318.810766 424.009165,316.115342 C412.334001,313.419918 405.054483,301.770254 407.749907,290.09509 Z M74.2296649,273.835832 C85.904829,271.140408 97.5544925,278.419926 100.249917,290.09509 C102.945341,301.770254 95.6658229,313.419918 83.9906587,316.115342 C72.3154946,318.810766 60.6658311,311.531248 57.9704071,299.856084 C55.274983,288.18092 62.5545007,276.531256 74.2296649,273.835832 Z M380.596982,126.351133 C389.908954,118.810447 403.570733,120.246357 411.111419,129.558329 C418.652105,138.870301 417.216194,152.53208 407.904222,160.072766 C398.59225,167.613452 384.930472,166.177542 377.389786,156.86557 C369.849099,147.553598 371.28501,133.891819 380.596982,126.351133 Z M96.888405,129.558329 C104.429091,120.246357 118.09087,118.810447 127.402842,126.351133 C136.714814,133.891819 138.150725,147.553598 130.610038,156.86557 C123.069352,166.177542 109.407573,167.613452 100.095602,160.072766 C90.7836297,152.53208 89.3477189,138.870301 96.888405,129.558329 Z M253.999912,53.9749597 C265.982181,53.9749597 275.695729,63.6885079 275.695729,75.6707768 C275.695729,87.6530457 265.982181,97.3665939 253.999912,97.3665939 C242.017643,97.3665939 232.304095,87.6530457 232.304095,75.6707768 C232.304095,63.6885079 242.017643,53.9749597 253.999912,53.9749597 Z" id="LWS" fill="#FFFFFF"></path>
            <path d="M311.376984,226.76 C315.54004,226.76 319.018911,227.372324 321.816865,228.604502 C324.611733,229.835321 326.869016,231.434032 328.582157,233.400893 C330.286613,235.357783 331.523597,237.533117 332.28922,239.921552 C332.675185,241.125608 332.981328,242.319263 333.207535,243.502449 C333.659784,245.867948 332.36616,247.691645 329.840724,247.691645 L325.671848,247.691645 C323.496059,247.691645 322.063681,246.53882 321.505731,244.647951 L321.468201,244.507377 C321.277069,243.711152 321.029189,242.981509 320.725006,242.318169 C320.136715,241.03527 319.378467,239.98317 318.449024,239.155881 C317.515589,238.325039 316.454857,237.709792 315.26114,237.307018 C314.049054,236.898045 312.755377,236.693335 311.376984,236.693335 C310.10776,236.693335 308.852479,236.821736 307.610299,237.07862 C306.401096,237.328684 305.330276,237.733726 304.394874,238.293124 C303.487443,238.835795 302.761331,239.537646 302.208907,240.40512 C301.674552,241.244218 301.404748,242.287959 301.404748,243.549851 C301.404748,244.995378 301.823166,246.183153 302.665054,247.148358 C303.569589,248.185385 304.766389,249.098321 306.258508,249.88541 C307.794274,250.695524 309.555346,251.425567 311.541024,252.074546 L315.659002,253.439647 C316.354713,253.673433 317.055115,253.910354 317.760208,254.15041 C319.892301,254.876302 321.981907,255.680537 324.028979,256.563107 C326.12222,257.465583 327.986775,258.574348 329.621016,259.889353 C331.279999,261.224267 332.622446,262.828469 333.644475,264.697306 C334.683015,266.596336 335.2,268.856201 335.2,271.468639 C335.2,274.605969 334.617455,277.362814 333.448875,279.732757 C332.281181,282.100906 330.651361,284.074065 328.565653,285.644164 C326.498846,287.200035 324.057445,288.37165 321.245579,289.159453 C318.455884,289.941045 315.405472,290.331249 312.095133,290.331249 C309.099167,290.331249 306.188528,289.80664 303.367635,288.758295 C300.542877,287.708514 298.013867,286.190472 295.785083,284.206652 C293.552732,282.219657 291.743767,279.816934 290.360763,277.003452 C289.43984,275.129995 288.805631,273.096408 288.453472,270.882251 L288.423893,270.650669 C288.182731,268.250603 289.508019,266.607724 292.050324,266.607724 L296.069671,266.607724 C298.168002,266.607724 299.466807,267.370539 300.023203,268.891411 L300.120105,269.173796 L300.248663,269.746478 L300.342289,270.229526 L300.577979,271.050661 C300.797334,271.787641 300.985227,272.357077 301.112293,272.666083 C301.766319,274.256582 302.623068,275.620463 303.683264,276.761715 C304.734841,277.89369 305.967746,278.767072 307.387682,279.385843 C308.805828,280.003834 310.372935,280.313311 312.095133,280.313311 C313.640854,280.313311 315.122942,280.150742 316.54237,279.825862 C317.926142,279.509144 319.137417,278.998145 320.180441,278.293152 C321.20145,277.603039 322.0163,276.703981 322.631372,275.587654 C323.23888,274.485056 323.545912,273.11417 323.545912,271.468639 C323.545912,270.054825 323.130036,268.898441 322.292346,267.962363 C321.387875,266.951661 320.190338,266.058051 318.697129,265.283737 C317.161351,264.487347 315.400207,263.771053 313.414429,263.135849 C311.382987,262.486039 309.316376,261.808008 307.21459,261.101757 C305.094034,260.389199 303.009026,259.583996 300.959634,258.686174 C298.866652,257.769256 297.002406,256.646095 295.368528,255.316773 C293.709549,253.96703 292.367421,252.340984 291.34591,250.443445 C290.308918,248.517149 289.792904,246.216847 289.792904,243.549851 C289.792904,240.831596 290.328138,238.416352 291.401007,236.312475 C292.47183,234.212611 293.983233,232.445465 295.92817,231.01824 C297.854323,229.604799 300.140242,228.540447 302.782224,227.824247 C305.400922,227.114359 308.266031,226.76 311.376984,226.76 Z M185.903741,227.938897 C187.333171,227.938897 188.492297,229.09703 188.493521,230.526459 L188.536292,276.09159 C188.537138,277.07946 189.338202,277.879839 190.326103,277.879839 L214.634959,277.881715 C215.993366,277.881715 217.118234,278.93114 217.218494,280.294245 L217.224715,280.482893 L217.201219,285.821616 C217.194944,287.24745 216.037311,288.4 214.611463,288.4 L180.189781,288.4 C178.759484,288.4 177.6,287.240516 177.6,285.810219 L177.6,230.526802 C177.6,229.096505 178.759484,227.937021 180.189912,227.937021 L185.903741,227.938897 Z M221.222447,227.937021 C222.893086,227.937021 224.347517,229.090232 224.750826,230.731193 L232.933059,264.022611 C233.024553,264.394876 233.392508,264.619217 233.75418,264.527641 C233.984617,264.469295 234.169195,264.291646 234.239672,264.058409 L244.366933,230.542877 C244.834594,228.995183 246.2448,227.937021 247.843758,227.937021 L252.120372,227.937021 C253.718312,227.937021 255.127872,228.993861 255.59639,230.540212 L265.653224,263.73294 C265.764226,264.099304 266.143129,264.302982 266.499373,264.191786 C266.724726,264.121446 266.898963,263.936185 266.958426,263.701672 L275.325145,230.704711 C275.737951,229.076672 277.18633,227.937021 278.846912,227.937021 L283.842557,227.937021 C285.256337,227.937021 286.4,229.097827 286.4,230.526802 C286.4,230.742299 286.37344,230.956962 286.320929,231.16581 L272.628323,285.625072 C272.218098,287.25665 270.76806,288.4 269.104729,288.4 L264.610573,288.4 C262.991192,288.4 261.568128,287.315136 261.118008,285.740603 L250.653584,249.135784 C250.548318,248.767562 250.172541,248.557713 249.814587,248.663134 C249.620648,248.720251 249.461488,248.862856 249.38973,249.028518 L249.343121,249.159729 L238.886364,285.740603 C238.436244,287.315136 237.01318,288.4 235.393799,288.4 L230.818863,288.4 C229.153709,288.4 227.702572,287.254192 227.294065,285.62027 L213.678741,231.162437 C213.332631,229.778083 214.15862,228.369523 215.527528,228.016938 C215.733566,227.963869 215.945343,227.937021 216.157959,227.937021 L221.222447,227.937021 Z" id="Shape" fill="#FFFFFF"></path>
        </g>
    </g>
</svg>

<svg xmlns="http://www.w3.org/2000/svg" role="img" viewBox="-10.15 -10.15 527.80 511.80"><g fill-rule="nonzero" fill="none" stroke="none" stroke-width="1"><path fill="#326CE5" d="M446.14259 121.16418c-2.6595-8.51043-9.04233-15.42516-17.02086-19.68037L266.89171 23.82616c-4.25521-2.1276-9.04233-2.6595-13.29754-2.6595-4.25522 0-9.04233 0-13.29755 1.0638L78.0666 100.42c-7.97853 3.7233-13.82945 10.63803-15.95705 19.68036L21.68502 295.09604c-1.59571 9.04233.5319 18.08466 5.85091 25.53128L139.7672 459.45367c6.38282 6.38282 15.42515 10.63803 24.46748 11.16994h179.25088c9.57423 1.0638 18.61656-3.19142 24.46748-11.16994L480.1843 320.62732c5.31902-7.44662 7.44662-16.48895 6.38282-25.53128l-40.42453-173.93187z"/><path fill="#FFF" d="M253.59417 0c8.14562 0 15.60965 1.31718 22.43665 4.73418l162.23003 77.65765.82166.41552c12.98016 6.92275 22.95538 18.25823 27.26322 32.04334l.23536.75315 40.86999 175.8485.13771 1.17056c1.61247 13.70599-1.53578 27.37646-9.11895 38.7682l-1.42832 2.0526-112.46454 139.11236-.53834.71235c-9.67494 12.35743-24.22972 19.30729-39.68202 18.63988l-1.83248-.12232-178.91147.00429-.62094-.03653c-14.17353-.83374-28.1055-7.24687-38.19161-17.33298l-.79054-.79053L10.67872 333.4437l-.3668-.51351c-8.63517-12.08925-12.05141-26.89295-9.47147-41.5126l.22102-1.08565 40.4441-175.07956c3.45547-14.68575 12.93013-26.61421 25.9141-33.1913L233.0597 2.2216l2.10327-.52581C238.54993.84904 241.9776.3886 245.70245.1695c1.88656-.11097 3.39283-.15186 5.6955-.16455L253.59418 0zm0 21.16665c-4.25522 0-9.04233 0-13.29755 1.0638L78.0666 100.42001c-7.97853 3.7233-13.82945 10.63803-15.95705 19.68036L21.68502 295.09604c-1.59571 9.04233.5319 18.08466 5.85091 25.53128L139.7672 459.45367c6.38282 6.38282 15.42515 10.63803 24.46748 11.16994h179.25088c9.57423 1.0638 18.61656-3.19142 24.46748-11.16994L480.1843 320.62732c5.31902-7.44662 7.44662-16.48895 6.38282-25.53128l-40.42453-173.93187c-2.6595-8.51042-9.04233-15.42515-17.02086-19.68036L266.89171 23.82616c-4.25521-2.1276-9.04233-2.6595-13.29754-2.6595zm97.73907 386.0031c5.25268 10.7696.78035 23.75821-9.98925 29.0109-10.76959 5.25268-23.7582.78034-29.01089-9.98926-5.25268-10.76959-.78034-23.7582 9.98925-29.01089 10.7696-5.25268 23.75821-.78034 29.0109 9.98926zm-165.65577-9.98925c10.7696 5.25268 15.24193 18.2413 9.98925 29.0109-5.25268 10.76959-18.2413 15.24193-29.01089 9.98925-10.7696-5.25269-15.24193-18.2413-9.98925-29.0109 5.25268-10.76959 18.2413-15.24193 29.0109-9.98925zm76.26231-286.94806l-.00297 29.1998c31.3637 2.07353 59.3931 16.34617 79.38695 38.11666l21.68468-17.56254c1.03541 1.92327 2.2642 3.77796 3.68912 5.5376 2.01328 2.4862 4.29357 4.62883 6.76624 6.42005l-22.20618 17.98444c13.41009 19.20755 21.27554 42.573 21.27554 67.77552 0 6.35517-.50014 12.59352-1.4632 18.67785l24.78159 5.7172c-.6108 1.57294-1.11663 3.20877-1.50734 4.90112-.8443 3.65705-1.0897 7.31257-.8004 10.8638l-26.00623-6.00249c-8.82744 29.383-28.74938 53.96486-54.89916 68.87892l10.51886 21.5566c-2.32513.58921-4.62506 1.42457-6.86618 2.51763-2.66497 1.2998-5.09398 2.88947-7.26758 4.71253l-10.66748-21.86811c-13.70115 5.53238-28.67294 8.5782-44.35613 8.5782-15.68318 0-30.65498-3.04582-44.35613-8.5782l-10.66748 21.8681c-2.1736-1.82305-4.6026-3.41272-7.26758-4.71252-2.24237-1.09367-4.5436-1.92935-6.87006-2.51862l10.51746-21.55863c-26.14718-14.91435-46.06703-39.49488-54.89388-68.8759l-26.00623 6.0025c.2893-3.55124.0439-7.20676-.8004-10.8638-.3907-1.69236-.89654-3.32819-1.50733-4.90113l24.78159-5.7172c-.96307-6.08433-1.4632-12.32268-1.4632-18.67785 0-25.20483 7.8669-48.57226 21.27923-67.78081L134.537 171.9433c2.4723-1.79108 4.75224-3.93348 6.76525-6.41934 1.42493-1.75964 2.65371-3.61433 3.68912-5.5376l21.68469 17.56254c19.99384-21.77049 48.02324-36.04313 79.38695-38.11665l-.00298-29.19981c2.5526.584 5.21021.89248 7.93987.89248 2.18373 0 4.32135-.19743 6.39598-.5754l1.5439-.31708zm-7.93987 45.87161l-2.78072.03732-2.58871.10213c-26.81241 1.3961-50.87354 13.18712-68.2298 31.41952l-.53137.56243-2.36272 2.6085a102.07332 102.07332 0 0 0-1.83357 2.15524l-2.20931 2.76733a101.92566 101.92566 0 0 0-3.39061 4.66904c-11.15152 16.30879-17.67311 36.032-17.67311 57.27841 0 4.82685.3366 9.57508.9876 14.2225l.091.63504.58499 3.55156.53388 2.70782.76445 3.31998-.07791-.30787.23468.94958a100.81161 100.81161 0 0 0 1.42213 5.04744c7.37661 23.7933 23.26284 43.84524 44.1012 56.59744l1.75738 1.05124a101.37463 101.37463 0 0 0 5.44712 2.96464l2.79733 1.35973.60549.27746 2.20133.97896.84666.35983 2.05031.838c11.5347 4.54813 24.10172 7.04658 37.25228 7.04658 13.06135 0 25.54705-2.46467 37.01738-6.9543l3.13823-1.28958 2.52025-1.12656 1.4387-.68063 1.42623-.70238 2.3738-1.24275 2.82184-1.55934c21.2711-12.28415 37.6752-32.05532 45.61066-55.71187l.64652-1.99603a100.84903 100.84903 0 0 0 2.33996-8.89634l.60326-3.03373.57418-3.47864c.71737-4.872 1.08892-9.8565 1.08892-14.92778 0-20.45138-6.04266-39.49143-16.43998-55.43215l-1.10188-1.65383a101.92877 101.92877 0 0 0-3.56804-4.92137l-2.10604-2.62501-1.18539-1.42292a102.19773 102.19773 0 0 0-2.90678-3.2509c-16.95344-18.16613-40.49411-30.10883-66.81698-32.02295l-2.40157-.14633-2.51476-.09287-2.5585-.03159zm179.77025 117.73178c11.67516 2.69543 18.95468 14.34509 16.25926 26.02025-2.69543 11.67517-14.3451 18.95469-26.02026 16.25926-11.67516-2.69542-18.95468-14.34509-16.25925-26.02025 2.69542-11.67516 14.34508-18.95468 26.02025-16.25926zM100.24992 290.0951c2.69542 11.67516-4.5841 23.32483-16.25926 26.02025-11.67517 2.69543-23.32483-4.5841-26.02025-16.25926-2.69543-11.67516 4.5841-23.32482 16.25925-26.02025 11.67517-2.69542 23.32483 4.5841 26.02026 16.25926zM311.37698 226.76c4.16306 0 7.64193.61232 10.43989 1.8445 2.79486 1.23082 5.05215 2.82953 6.76529 4.7964 1.70445 1.95688 2.94144 4.13222 3.70706 6.52065.38596 1.20406.6921 2.39771.91832 3.5809.45224 2.3655-.84138 4.1892-3.36682 4.1892h-4.16887c-2.1758 0-3.60817-1.15283-4.16612-3.0437l-.03753-.14057c-.19113-.79623-.43901-1.52587-.7432-2.18921-.58829-1.2829-1.34653-2.335-2.27598-3.16229-.93343-.83084-1.99416-1.44609-3.18788-1.84886-1.21209-.40897-2.50576-.61369-3.88416-.61369-1.26922 0-2.5245.1284-3.76668.38529-1.2092.25006-2.28002.6551-3.21543 1.2145-.90743.54268-1.63354 1.24453-2.18596 2.112-.53436.8391-.80416 1.88284-.80416 3.14473 0 1.44553.41842 2.6333 1.2603 3.5985.90454 1.03704 2.10134 1.94997 3.59346 2.73706 1.53576.81011 3.29684 1.54016 5.28251 2.18914l4.11798 1.3651c.69571.23378 1.39612.4707 2.1012.71076 2.1321.7259 4.2217 1.53013 6.26878 2.4127 2.09324.90247 3.9578 2.01124 5.59204 3.32624 1.65898 1.33492 3.00143 2.93912 4.02346 4.80796 1.03854 1.89903 1.55552 4.1589 1.55552 6.77133 0 3.13733-.58254 5.89417-1.75113 8.26412-1.16769 2.36815-2.7975 4.3413-4.88322 5.9114-2.0668 1.55588-4.5082 2.72749-7.32007 3.5153-2.7897.78158-5.8401 1.17179-9.15045 1.17179-2.99596 0-5.9066-.52461-8.7275-1.57296-2.82475-1.04978-5.35376-2.56782-7.58255-4.55164-2.23235-1.987-4.04131-4.38972-5.42432-7.2032-.92092-1.87345-1.55513-3.90704-1.90729-6.1212l-.02958-.23158c-.24116-2.40007 1.08413-4.04295 3.62643-4.04295h4.01935c2.09833 0 3.39714.76282 3.95353 2.2837l.0969.28238.12856.57268.09363.48305.23569.82113c.21935.73698.40725 1.30642.53431 1.61542.65403 1.5905 1.51078 2.95438 2.57097 4.09563 1.05158 1.13198 2.28449 2.00536 3.70442 2.62413 1.41815.618 2.98525.92747 4.70745.92747 1.54572 0 3.02781-.16257 4.44724-.48745 1.38377-.31672 2.59505-.82771 3.63807-1.5327 1.02101-.69012 1.83586-1.58918 2.45093-2.7055.60751-1.1026.91454-2.47349.91454-4.11902 0-1.41381-.41587-2.5702-1.25356-3.50628-.90447-1.0107-2.10201-1.9043-3.59522-2.67862-1.53578-.7964-3.29692-1.51269-5.2827-2.1479-2.03144-.6498-4.09805-1.32783-6.19984-2.03408a75.55065 75.55065 0 0 1-6.25496-2.41559c-2.09298-.91691-3.95722-2.04008-5.5911-3.3694-1.65898-1.34974-3.0011-2.97579-4.02262-4.87332-1.037-1.9263-1.553-4.2266-1.553-6.8936 0-2.71825.53523-5.1335 1.6081-7.23737 1.07082-2.09987 2.58222-3.86701 4.52716-5.29424 1.92615-1.41344 4.21207-2.4778 6.85405-3.194 2.6187-.70988 5.48381-1.06424 8.59476-1.06424zm-131.18707 1.17702l5.71383.00188c1.42943 0 2.58856 1.15813 2.58978 2.58756l.04277 45.56513c.00085.98787.80191 1.78825 1.78981 1.78825l24.30886.00187c1.3584 0 2.48327 1.04943 2.58353 2.41253l.00623.18865-.0235 5.33873c-.00628 1.42583-1.1639 2.57838-2.58976 2.57838h-34.42168c-1.4303 0-2.58978-1.15948-2.58978-2.58978V230.5268c0-1.4303 1.15948-2.58978 2.58991-2.58978zm41.03254 0c1.67064 0 3.12507 1.15321 3.52838 2.79417l8.18223 33.29142c.0915.37227.45945.5966.82112.50503.23044-.05835.41502-.236.4855-.46923l10.12725-33.51553c.46766-1.5477 1.87787-2.60586 3.47683-2.60586h4.27661c1.59794 0 3.0075 1.05684 3.47602 2.6032l10.05683 33.19272c.111.36636.4899.57004.84615.45885.22536-.07034.3996-.2556.45906-.49012l8.36671-32.99696c.41281-1.62804 1.86119-2.76769 3.52177-2.76769h4.99565c1.41378 0 2.55744 1.1608 2.55744 2.58978 0 .2155-.02656.43016-.07907.63901l-13.6926 54.45926c-.41023 1.63158-1.86027 2.77493-3.5236 2.77493h-4.49416c-1.61938 0-3.04244-1.08486-3.49256-2.6594l-10.46443-36.60482c-.10526-.36822-.48104-.57807-.839-.47265-.19393.05712-.3531.19973-.42485.36539l-.0466.1312-10.45677 36.58088c-.45012 1.57454-1.87318 2.6594-3.49256 2.6594h-4.57494c-1.66515 0-3.11629-1.1458-3.5248-2.77973l-13.61532-54.45783c-.3461-1.38436.47988-2.79292 1.84879-3.1455a2.52728 2.52728 0 0 1 .63043-.07992h5.06449zm189.88897-98.3787c7.54068 9.31198 6.10477 22.97376-3.2072 30.51445-9.31197 7.54068-22.97375 6.10477-30.51443-3.2072-7.5407-9.31197-6.10478-22.97375 3.2072-30.51444 9.31196-7.54068 22.97374-6.10477 30.51443 3.2072zm-283.70858-3.20719c9.31197 7.54069 10.74788 21.20247 3.2072 30.51444-7.54069 9.31197-21.20247 10.74788-30.51444 3.2072-9.31197-7.54069-10.74788-21.20247-3.2072-30.51444 7.5407-9.31197 21.20247-10.74788 30.51444-3.2072zm126.59707-72.37617c11.98227 0 21.69582 9.71355 21.69582 21.69582 0 11.98227-9.71355 21.69581-21.69582 21.69581-11.98227 0-21.69582-9.71354-21.69582-21.69581 0-11.98227 9.71355-21.69582 21.69582-21.69582z"/></g></svg>
